; generated by PrusaSlicer 2.6.0-alpha3+win64 on 2023-02-23 at 17:41:49 UTC


;
;
; 

; external perimeters extrusion width = 0.45mm
; perimeters extrusion width = 0.45mm
; infill extrusion width = 0.45mm
; solid infill extrusion width = 0.45mm
; top infill extrusion width = 0.40mm
; support material extrusion width = 0.35mm
; first layer extrusion width = 0.42mm

M73 P0 R50
M73 Q0 S51
M201 X1000 Y1000 Z200 E5000 ; sets maximum accelerations, mm/sec^2
M203 X200 Y200 Z12 E120 ; sets maximum feedrates, mm / sec
M204 P1250 R1250 T1250 ; sets acceleration (P, T) and retract acceleration (R), mm/sec^2
M205 X8.00 Y8.00 Z0.40 E4.50 ; sets the jerk limits, mm/sec
M205 S0 T0 ; sets the minimum extruding and travel feed rate, mm/sec
M107
;TYPE:Custom
M862.3 P "MK3S" ; printer model check
M862.1 P0.4 ; nozzle diameter check
M115 U3.11.0 ; tell printer latest fw version
G90 ; use absolute coordinates
M83 ; extruder relative mode
M104 S215 ; set extruder temp
M140 S60 ; set bed temp
M190 S60 ; wait for bed temp
M109 S215 ; wait for extruder temp
G28 W ; home all without mesh bed level
G80 ; mesh bed leveling

G1 Z0.2 F720
G1 Y-3 F1000 ; go outside print area
G92 E0
G1 X60 E9 F1000 ; intro line
G1 X100 E12.5 F1000 ; intro line

G92 E0
M221 S95

; Don't change E values below. Excessive value can damage the printer.
M907 E430 ; set extruder motor current
G21 ; set units to millimeters
G90 ; use absolute coordinates
M83 ; use relative distances for extrusion
M900 K0.05 ; Filament gcode LA 1.5
M900 K30 ; Filament gcode LA 1.0
M107
;LAYER_CHANGE
;Z:0.2
;HEIGHT:0.2
;BEFORE_LAYER_CHANGE
G92 E0.0
;0.2


M73 Q0 S50
G1 E-.8 F2100
G1 Z.4 F720
;AFTER_LAYER_CHANGE
;0.2
G1 X118.376 Y94.31 F10800
G1 Z.2 F720
G1 E.8 F2100
M204 S800
;TYPE:Skirt/Brim
;WIDTH:0.42
G1 F1200
G1 X119.102 Y93.564 E.03264
G1 X119.62 Y93.22 E.0195
G1 X120.572 Y92.849 E.03204
G1 X121.489 Y92.734 E.02898
G1 X128.5 Y92.735 E.21982
G1 X129.18 Y92.796 E.02141
G1 X129.855 Y92.98 E.02194
G1 X130.87 Y93.542 E.03638
G1 X131.604 Y94.283 E.0327
G1 X131.89 Y94.721 E.0164
G1 X132.314 Y95.87 E.0384
G1 X132.39 Y96.625 E.02379
G1 X132.39 Y111.233 E.45802
G1 X131.896 Y112.918 E.05506
G1 X131.415 Y113.549 E.02488
G1 X130.79 Y114.107 E.02627
G1 X129.904 Y114.59 E.03164
G1 X129.243 Y114.782 E.02158
G1 X128.5 Y114.856 E.02341
G1 X121.5 Y114.856 E.21948
G1 X120.757 Y114.782 E.02341
G1 X120.096 Y114.59 E.02158
G1 X119.194 Y114.095 E.03226
G1 X118.335 Y113.251 E.03776
G1 X118.108 Y112.925 E.01246
G1 X117.61 Y111.233 E.0553
G1 X117.609 Y96.616 E.45831
G1 X117.7 Y95.802 E.02568
G1 X117.881 Y95.2 E.01971
G1 X118.347 Y94.362 E.03006
M204 S1000
G1 X118.673 Y94.543 F10800
M204 S800
G1 F1200
G1 X119.331 Y93.864 E.02965
G1 X120.206 Y93.36 E.03166
G1 X120.762 Y93.193 E.0182
G1 X121.489 Y93.111 E.02294
G1 X128.5 Y93.112 E.21982
G1 X129.118 Y93.168 E.01946
G1 X129.722 Y93.332 E.01962
G1 X130.643 Y93.843 E.03302
G1 X131.3 Y94.505 E.02924
G1 X131.559 Y94.901 E.01484
G1 X131.946 Y95.949 E.03503
G1 X132.013 Y96.625 E.0213
G1 X132.013 Y111.232 E.45799
G1 X131.579 Y112.715 E.04845
G1 X131.063 Y113.373 E.02622
G1 X130.42 Y113.903 E.02613
G1 X129.618 Y114.293 E.02796
G1 X128.814 Y114.464 E.02577
G1 X121.5 Y114.479 E.22933
G1 X120.835 Y114.413 E.02095
G1 X120.23 Y114.238 E.01975
G1 X119.414 Y113.789 E.0292
G1 X118.631 Y113.018 E.03445
G1 X118.425 Y112.721 E.01133
G1 X117.987 Y111.232 E.04866
G1 X117.986 Y96.616 E.45827
G1 X118.068 Y95.887 E.023
G1 X118.234 Y95.333 E.01813
G1 X118.644 Y94.596 E.02644
M204 S1000
G1 X118.97 Y94.777 F10800
M204 S800
G1 F1200
G1 X119.559 Y94.163 E.02668
G1 X120.339 Y93.713 E.02823
G1 X120.846 Y93.56 E.0166
G1 X121.489 Y93.488 E.02029
G1 X128.5 Y93.489 E.21982
G1 X129.588 Y93.685 E.03466
G1 X130.416 Y94.144 E.02968
G1 X130.995 Y94.727 E.02576
G1 X131.228 Y95.081 E.01329
G1 X131.577 Y96.027 E.03162
G1 X131.636 Y96.625 E.01884
G1 X131.636 Y111.232 E.45799
G1 X131.261 Y112.511 E.04179
G1 X130.789 Y113.114 E.02401
G1 X130.21 Y113.59 E.0235
G1 X129.492 Y113.937 E.025
G1 X128.785 Y114.088 E.02267
G1 X121.5 Y114.102 E.22842
G1 X120.912 Y114.044 E.01853
G1 X120.363 Y113.885 E.01792
G1 X119.635 Y113.483 E.02607
G1 X118.928 Y112.784 E.03117
G1 X118.742 Y112.517 E.0102
G1 X118.364 Y111.232 E.042
G1 X118.363 Y96.616 E.45827
G1 X118.435 Y95.971 E.02035
G1 X118.587 Y95.465 E.01657
G1 X118.941 Y94.83 E.02279
M204 S1000
; printing object Pusher.stl id:0 copy 0
;WIPE_START
G1 F8640
G1 X119.559 Y94.163 E-.20996
G1 X120.339 Y93.713 E-.20793
G1 X120.846 Y93.56 E-.12228
G1 X121.489 Y93.488 E-.1494
G1 X121.967 Y93.488 E-.11043
;WIPE_END
G1 Z.6 F720
G1 X127.769 Y110.311 F10800
G1 Z.2 F720
G1 E.8 F2100
M204 S800
;TYPE:Perimeter
;WIDTH:0.419999
G1 F1200
G1 X122.231 Y110.311 E.17364
G1 X122.231 Y97.356 E.40619
G1 X127.769 Y97.356 E.17364
G1 X127.769 Y110.251 E.40431
M204 S1000
G1 X128.146 Y110.688 F10800
M204 S800
G1 F1200
G1 X121.854 Y110.688 E.19728
G1 X121.854 Y96.979 E.42984
G1 X128.146 Y96.979 E.19728
G1 X128.146 Y110.628 E.42795
M204 S1000
G1 X128.523 Y111.054 F10800
M204 S800
;TYPE:External perimeter
G1 F1200
G1 X121.477 Y111.053 E.22092
G1 X121.477 Y96.687 E.45044
G1 X121.532 Y96.602 E.00317
G1 X128.431 Y96.602 E.21631
G1 X128.472 Y96.605 E.00129
G1 X128.523 Y96.694 E.00322
G1 X128.523 Y110.994 E.44837
M204 S1000
G1 X128.177 Y110.855 F10800
;WIPE_START
G1 F8640
G1 X125.058 Y111.023 E-.8
;WIPE_END
G1 Z.6 F720
G1 X126.87 Y97.469 F10800
G1 Z.2 F720
G1 E.8 F2100
M204 S800
;TYPE:Solid infill
;WIDTH:0.431105
G1 F1200
G1 X127.486 Y98.085 E.02812
G1 X127.486 Y98.634 E.01772
G1 X126.491 Y97.639 E.04542
G1 X125.942 Y97.639 E.01772
G1 X127.486 Y99.183 E.07048
G1 X127.486 Y99.732 E.01772
G1 X125.393 Y97.639 E.09554
G1 X124.844 Y97.639 E.01772
G1 X127.486 Y100.281 E.1206
G1 X127.486 Y100.83 E.01772
G1 X124.295 Y97.639 E.14566
G1 X123.746 Y97.639 E.01772
G1 X127.486 Y101.379 E.17072
G1 X127.486 Y101.928 E.01772
G1 X123.197 Y97.639 E.19578
G1 X122.648 Y97.639 E.01772
G1 X127.486 Y102.477 E.22084
G1 X127.486 Y103.026 E.01772
G1 X122.514 Y98.053 E.22698
G1 X122.514 Y98.602 E.01772
G1 X127.486 Y103.575 E.22698
G1 X127.486 Y104.124 E.01772
G1 X122.514 Y99.151 E.22698
G1 X122.514 Y99.7 E.01772
G1 X127.486 Y104.673 E.22698
G1 X127.486 Y105.222 E.01772
G1 X122.514 Y100.249 E.22698
G1 X122.514 Y100.798 E.01772
G1 X127.486 Y105.771 E.22698
G1 X127.486 Y106.32 E.01772
G1 X122.514 Y101.347 E.22698
G1 X122.514 Y101.896 E.01772
G1 X127.486 Y106.869 E.22698
G1 X127.486 Y107.418 E.01772
G1 X122.514 Y102.445 E.22698
G1 X122.514 Y102.994 E.01772
G1 X127.486 Y107.967 E.22698
G1 X127.486 Y108.516 E.01772
G1 X122.514 Y103.543 E.22698
G1 X122.514 Y104.092 E.01772
M73 Q1 S50
G1 X127.486 Y109.065 E.22698
G1 X127.486 Y109.614 E.01772
M73 P1 R50
G1 X122.514 Y104.641 E.22698
G1 X122.514 Y105.19 E.01772
G1 X127.352 Y110.028 E.22084
G1 X126.803 Y110.028 E.01772
G1 X122.514 Y105.739 E.19578
G1 X122.514 Y106.288 E.01772
G1 X126.254 Y110.028 E.17072
G1 X125.705 Y110.028 E.01772
G1 X122.514 Y106.837 E.14566
G1 X122.514 Y107.386 E.01772
G1 X125.156 Y110.028 E.1206
G1 X124.607 Y110.028 E.01772
G1 X122.514 Y107.935 E.09554
G1 X122.514 Y108.484 E.01772
G1 X124.058 Y110.028 E.07048
G1 X123.509 Y110.028 E.01772
G1 X122.514 Y109.033 E.04542
G1 X122.514 Y109.582 E.01772
G1 X123.13 Y110.198 E.02812
M204 S1000
; stop printing object Pusher.stl id:0 copy 0
M106 S84.15
;LAYER_CHANGE
;Z:0.3
;HEIGHT:0.1
;BEFORE_LAYER_CHANGE
G92 E0.0
;0.3


;WIPE_START
G1 F8640
G1 X122.514 Y109.582 E-.20115
G1 X122.514 Y109.033 E-.12677
G1 X123.509 Y110.028 E-.32491
G1 X124.058 Y110.028 E-.12677
G1 X123.996 Y109.966 E-.0204
;WIPE_END
G1 Z.6 F720
;AFTER_LAYER_CHANGE
;0.3
G1 X123.996 Y114.856 F10800
G1 Z.3 F720
G1 E.8 F2100
;TYPE:Skirt/Brim
;WIDTH:0.42
G1 F2251
G1 X121.5 Y114.856 E.04136
G1 X120.757 Y114.782 E.01237
G1 X120.096 Y114.59 E.01141
G1 X119.194 Y114.095 E.01705
G1 X118.335 Y113.251 E.01995
G1 X118.108 Y112.925 E.00658
G1 X117.61 Y111.233 E.02922
G1 X117.609 Y96.616 E.24219
G1 X117.7 Y95.802 E.01357
G1 X117.881 Y95.2 E.01042
G1 X118.376 Y94.31 E.01687
G1 X119.102 Y93.564 E.01725
G1 X119.62 Y93.22 E.0103
G1 X120.572 Y92.849 E.01693
G1 X121.489 Y92.734 E.01531
G1 X128.5 Y92.735 E.11617
G1 X129.18 Y92.796 E.01131
G1 X129.855 Y92.98 E.01159
G1 X130.87 Y93.542 E.01922
G1 X131.604 Y94.283 E.01728
G1 X131.89 Y94.721 E.00867
G1 X132.314 Y95.87 E.02029
G1 X132.39 Y96.625 E.01257
G1 X132.39 Y111.233 E.24205
G1 X131.896 Y112.918 E.02909
G1 X131.415 Y113.549 E.01315
G1 X130.79 Y114.107 E.01388
G1 X129.904 Y114.59 E.01672
G1 X129.243 Y114.782 E.01141
G1 X128.5 Y114.856 E.01237
G1 X124.056 Y114.856 E.07363
G1 X124.055 Y114.474 F10800
G1 F2251
G1 X121.5 Y114.479 E.04233
G1 X120.835 Y114.413 E.01107
G1 X120.23 Y114.238 E.01044
G1 X119.414 Y113.789 E.01543
G1 X118.631 Y113.018 E.01821
G1 X118.425 Y112.721 E.00599
G1 X117.987 Y111.232 E.02572
G1 X117.986 Y96.616 E.24218
G1 X118.068 Y95.887 E.01216
G1 X118.234 Y95.333 E.00958
G1 X118.675 Y94.539 E.01505
G1 X119.331 Y93.864 E.0156
G1 X120.206 Y93.36 E.01673
G1 X120.762 Y93.193 E.00962
G1 X121.489 Y93.111 E.01212
G1 X128.5 Y93.112 E.11617
G1 X129.118 Y93.168 E.01028
G1 X129.722 Y93.332 E.01037
G1 X130.643 Y93.843 E.01745
G1 X131.3 Y94.505 E.01545
G1 X131.559 Y94.901 E.00784
G1 X131.946 Y95.949 E.01851
G1 X132.013 Y96.625 E.01126
G1 X132.013 Y111.232 E.24203
G1 X131.579 Y112.715 E.0256
G1 X131.063 Y113.373 E.01386
G1 X130.42 Y113.903 E.01381
G1 X129.618 Y114.293 E.01478
G1 X128.814 Y114.464 E.01362
G1 X124.115 Y114.474 E.07786
G1 X124.114 Y114.097 F10800
G1 F2251
G1 X121.5 Y114.102 E.04331
G1 X120.912 Y114.044 E.00979
G1 X120.363 Y113.885 E.00947
G1 X119.635 Y113.483 E.01378
G1 X118.928 Y112.784 E.01647
G1 X118.742 Y112.517 E.00539
G1 X118.364 Y111.232 E.02219
G1 X118.363 Y96.616 E.24218
G1 X118.435 Y95.971 E.01075
G1 X118.587 Y95.465 E.00875
G1 X118.975 Y94.767 E.01323
G1 X119.559 Y94.163 E.01392
G1 X120.339 Y93.713 E.01492
G1 X120.846 Y93.56 E.00877
G1 X121.489 Y93.488 E.01072
G1 X128.5 Y93.489 E.11617
G1 X129.588 Y93.685 E.01832
G1 X130.416 Y94.144 E.01569
G1 X130.995 Y94.727 E.01361
G1 X131.228 Y95.081 E.00702
G1 X131.577 Y96.027 E.01671
G1 X131.636 Y96.625 E.00996
G1 X131.636 Y111.232 E.24203
G1 X131.261 Y112.511 E.02208
G1 X130.789 Y113.114 E.01269
G1 X130.21 Y113.59 E.01242
G1 X129.492 Y113.937 E.01321
G1 X128.785 Y114.088 E.01198
G1 X124.174 Y114.097 E.0764
; printing object Pusher.stl id:0 copy 0
;WIPE_START
G1 F8640
G1 X121.5 Y114.102 E-.61744
G1 X120.912 Y114.044 E-.13643
G1 X120.72 Y113.988 E-.04613
;WIPE_END
G1 Z.7 F720
G1 X128.078 Y110.543 F10800
G1 Z.3 F720
G1 E.8 F2100
M204 S600
;TYPE:Perimeter
;WIDTH:0.449999
G1 F1500
G1 X121.922 Y110.543 E.10968
G1 X121.921 Y97.048 E.24043
G1 X128.079 Y97.048 E.10971
G1 X128.078 Y110.483 E.23937
M204 S1000
G1 X128.454 Y110.971 F10800
M204 S600
G1 F2251
G1 X121.577 Y110.971 E.12252
G1 X121.494 Y110.956 E.0015
G1 X121.493 Y96.7 E.25399
G1 X121.529 Y96.619 E.00158
G1 X128.452 Y96.619 E.12334
G1 X128.507 Y96.678 E.00144
G1 X128.506 Y110.957 E.2544
M204 S1000
G1 X128.484 Y111.4 F10800
M204 S600
;TYPE:External perimeter
G1 F1500
G1 X121.577 Y111.4 E.12306
G1 X121.29 Y111.351 E.00519
G1 X121.065 Y111.178 E.00506
G1 X121.064 Y96.7 E.25795
G1 X121.103 Y96.461 E.00431
G1 X121.225 Y96.292 E.00371
G1 X121.476 Y96.191 E.00482
G1 X128.504 Y96.19 E.12521
G1 X128.716 Y96.26 E.00398
G1 X128.857 Y96.415 E.00373
G1 X128.936 Y96.643 E.0043
G1 X128.935 Y111.17 E.25882
G1 X128.752 Y111.329 E.00432
G1 X128.542 Y111.385 E.00387
M204 S1000
G1 X128.232 Y111.089 F10800
;WIPE_START
G1 F8640
G1 X125.077 Y111.392 E-.8
;WIPE_END
G1 Z.7 F720
G1 X127.949 Y109.527 F10800
G1 Z.3 F720
G1 E.8 F2100
;TYPE:Solid infill
;WIDTH:0.459933
G1 F2251
G1 X127.255 Y110.222 E.0179
G1 X126.635 Y110.222 E.0113
G1 X127.756 Y109.1 E.02891
G1 X127.756 Y108.48 E.0113
G1 X126.014 Y110.222 E.04491
G1 X125.394 Y110.222 E.0113
G1 X127.757 Y107.859 E.06092
G1 X127.757 Y107.239 E.0113
G1 X124.774 Y110.222 E.0769
G1 X124.154 Y110.222 E.0113
G1 X127.757 Y106.619 E.09289
G1 X127.757 Y105.999 E.0113
G1 X123.534 Y110.222 E.10887
G1 X122.914 Y110.222 E.0113
G1 X127.757 Y105.379 E.12486
G1 X127.757 Y104.759 E.0113
G1 X122.294 Y110.222 E.14084
G1 X122.244 Y110.222 E.00091
G1 X122.244 Y109.652 E.01039
G1 X127.757 Y104.139 E.14213
G1 X127.757 Y103.518 E.01132
G1 X122.244 Y109.032 E.14214
G1 X122.244 Y108.412 E.0113
G1 X127.757 Y102.898 E.14214
G1 X127.757 Y102.278 E.0113
G1 X122.243 Y107.792 E.14215
G1 X122.243 Y107.172 E.0113
G1 X127.757 Y101.658 E.14215
G1 X127.757 Y101.038 E.0113
G1 X122.243 Y106.551 E.14214
G1 X122.243 Y105.931 E.0113
G1 X127.757 Y100.418 E.14214
G1 X127.757 Y99.798 E.0113
G1 X122.243 Y105.311 E.14214
G1 X122.243 Y104.691 E.0113
G1 X127.757 Y99.178 E.14214
G1 X127.757 Y98.557 E.01132
G1 X122.243 Y104.071 E.14215
G1 X122.243 Y103.451 E.0113
G1 X127.757 Y97.937 E.14215
G1 X127.757 Y97.369 E.01035
G1 X127.705 Y97.369 E.00095
G1 X122.243 Y102.831 E.14081
G1 X122.243 Y102.211 E.0113
G1 X127.085 Y97.369 E.12483
G1 X126.465 Y97.369 E.0113
G1 X122.243 Y101.591 E.10885
G1 X122.243 Y100.971 E.0113
G1 X125.845 Y97.369 E.09286
G1 X125.225 Y97.369 E.0113
G1 X122.243 Y100.351 E.07688
G1 X122.243 Y99.731 E.0113
G1 X124.605 Y97.369 E.06089
G1 X123.985 Y97.369 E.0113
G1 X122.243 Y99.111 E.04491
G1 X122.243 Y98.491 E.0113
G1 X123.365 Y97.369 E.02893
G1 X122.744 Y97.369 E.01132
G1 X122.05 Y98.063 E.01789
; stop printing object Pusher.stl id:0 copy 0
M106 S170.85
;LAYER_CHANGE
;Z:0.4
;HEIGHT:0.1
;BEFORE_LAYER_CHANGE
G92 E0.0
;0.4


;WIPE_START
G1 F8640
G1 X122.744 Y97.369 E-.22662
G1 X123.365 Y97.369 E-.14339
G1 X122.243 Y98.491 E-.36638
G1 X122.243 Y98.766 E-.06361
;WIPE_END
G1 Z.7 F720
;AFTER_LAYER_CHANGE
;0.4
G1 X117.609 Y98.767 F10800
G1 Z.4 F720
G1 E.8 F2100
;TYPE:Skirt/Brim
;WIDTH:0.42
G1 F2347
G1 X117.609 Y96.616 E.03564
G1 X117.7 Y95.802 E.01357
G1 X117.881 Y95.2 E.01042
G1 X118.376 Y94.31 E.01687
G1 X119.102 Y93.564 E.01725
G1 X119.62 Y93.22 E.0103
G1 X120.572 Y92.849 E.01693
G1 X121.489 Y92.734 E.01531
G1 X128.5 Y92.735 E.11617
G1 X129.18 Y92.796 E.01131
G1 X129.855 Y92.98 E.01159
G1 X130.87 Y93.542 E.01922
G1 X131.604 Y94.283 E.01728
G1 X131.89 Y94.721 E.00867
G1 X132.314 Y95.87 E.02029
G1 X132.39 Y96.625 E.01257
G1 X132.39 Y111.233 E.24205
G1 X131.896 Y112.918 E.02909
G1 X131.415 Y113.549 E.01315
G1 X130.79 Y114.107 E.01388
G1 X129.904 Y114.59 E.01672
G1 X129.243 Y114.782 E.01141
G1 X128.5 Y114.856 E.01237
G1 X121.5 Y114.856 E.11599
G1 X120.757 Y114.782 E.01237
G1 X120.096 Y114.59 E.01141
G1 X119.194 Y114.095 E.01705
G1 X118.335 Y113.251 E.01995
G1 X118.108 Y112.925 E.00658
G1 X117.61 Y111.233 E.02922
G1 X117.609 Y98.827 E.20556
G1 X117.986 Y98.827 F10800
G1 F2347
G1 X117.986 Y96.616 E.03663
G1 X118.068 Y95.887 E.01216
G1 X118.234 Y95.333 E.00958
G1 X118.675 Y94.539 E.01505
G1 X119.331 Y93.864 E.0156
G1 X120.206 Y93.36 E.01673
G1 X120.762 Y93.193 E.00962
G1 X121.489 Y93.111 E.01212
G1 X128.5 Y93.112 E.11617
G1 X129.118 Y93.168 E.01028
G1 X129.722 Y93.332 E.01037
G1 X130.643 Y93.843 E.01745
G1 X131.3 Y94.505 E.01545
G1 X131.559 Y94.901 E.00784
G1 X131.946 Y95.949 E.01851
G1 X132.013 Y96.625 E.01126
G1 X132.013 Y111.232 E.24203
G1 X131.579 Y112.715 E.0256
G1 X131.063 Y113.373 E.01386
G1 X130.42 Y113.903 E.01381
G1 X129.618 Y114.293 E.01478
G1 X128.814 Y114.464 E.01362
G1 X121.5 Y114.479 E.12119
G1 X120.835 Y114.413 E.01107
G1 X120.23 Y114.238 E.01044
G1 X119.414 Y113.789 E.01543
G1 X118.631 Y113.018 E.01821
G1 X118.425 Y112.721 E.00599
G1 X117.987 Y111.232 E.02572
G1 X117.986 Y98.887 E.20455
G1 X118.363 Y98.887 F10800
G1 F2347
G1 X118.363 Y96.616 E.03763
G1 X118.435 Y95.971 E.01075
G1 X118.587 Y95.465 E.00875
G1 X118.975 Y94.767 E.01323
G1 X119.559 Y94.163 E.01392
G1 X120.339 Y93.713 E.01492
G1 X120.846 Y93.56 E.00877
G1 X121.489 Y93.488 E.01072
G1 X128.5 Y93.489 E.11617
G1 X129.588 Y93.685 E.01832
G1 X130.416 Y94.144 E.01569
G1 X130.995 Y94.727 E.01361
G1 X131.228 Y95.081 E.00702
G1 X131.577 Y96.027 E.01671
G1 X131.636 Y96.625 E.00996
G1 X131.636 Y111.232 E.24203
G1 X131.261 Y112.511 E.02208
G1 X130.789 Y113.114 E.01269
G1 X130.21 Y113.59 E.01242
G1 X129.492 Y113.937 E.01321
G1 X128.785 Y114.088 E.01198
